brandFactory_export/1.Light/Formacion_1Light.svg

<?xml version="1.0" encoding="UTF-8"?>
<svg width="24px" height="24px" viewBox="0 0 24 24" version="1.1" xmlns="http://www.w3.org/2000/svg" xmlns:xlink="http://www.w3.org/1999/xlink">
    <title>1.Light/Formacion_1Light</title>
    <g id="Symbols" stroke="none" stroke-width="1" fill="none" fill-rule="evenodd">
        <g id="1.Light/Formacion_1Light" fill="#5CB615" fill-rule="nonzero">
            <path d="M23.1428571,22.6420168 C23.4151261,22.6554622 23.6235294,22.8840336 23.610084,23.1563025 C23.6,23.4117647 23.394958,23.6134454 23.1428571,23.6235294 L8.05378151,23.6235294 C7.78151261,23.6235294 7.56302521,23.405042 7.56302521,23.1327731 C7.56302521,22.8605042 7.78151261,22.6420168 8.05378151,22.6420168 L23.1428571,22.6420168 L23.1428571,22.6420168 Z M6.0302521,2.08067227 C5.25042017,2.83697479 4.85378151,3.97647059 4.85378151,5.47226891 C4.85378151,6.96806723 5.25042017,8.10756303 6.0302521,8.85714286 C6.78319328,9.58319328 7.89579832,9.94957983 9.33445378,9.94957983 C10.7764706,9.94957983 11.8890756,9.58319328 12.6453782,8.85714286 C13.4319328,8.10756303 13.8285714,6.96470588 13.8285714,5.47226891 C13.8285714,3.97983193 13.4319328,2.83361345 12.6453782,2.08067227 C11.8890756,1.3512605 10.7764706,0.981512605 9.33445378,0.981512605 C7.89579832,0.981512605 6.78319328,1.3512605 6.0302521,2.08067227 Z M9.33445378,10.9344538 C7.63361345,10.9344538 6.29243697,10.4739496 5.3512605,9.5697479 C4.3697479,8.62521008 3.87226891,7.24705882 3.87226891,5.47563025 C3.87226891,3.70420168 4.3697479,2.32605042 5.34789916,1.37815126 C6.28907563,0.463865546 7.63361345,0 9.33445378,0 C11.0352941,0 12.3798319,0.463865546 13.3243697,1.37142857 C14.3092437,2.31932773 14.8067227,3.70084034 14.8067227,5.47226891 C14.8067227,7.24369748 14.3092437,8.62184874 13.3210084,9.56638655 C12.3798319,10.4739496 11.0386555,10.9344538 9.33445378,10.9344538 L9.33445378,10.9344538 Z M0.991596639,19.8016807 C0.991596639,19.8420168 1.02521008,19.8756303 1.06554622,19.8756303 L7.64705882,19.8756303 C7.59327731,19.6268908 7.56638655,19.3747899 7.56638655,19.1193277 L7.56638655,14.0067227 C7.56638655,13.6739496 7.61008403,13.3781513 7.68403361,13.1092437 L6.30252101,13.1092437 C4.59495798,13.1092437 3.20672269,13.6168067 2.28571429,14.5781513 C1.44201681,15.4588235 0.994957983,16.692437 0.994957983,18.1445378 L0.991596639,19.8016807 L0.991596639,19.8016807 Z M10.1411765,12.4403361 C9.56638655,12.4403361 9.15294118,12.5680672 8.90420168,12.8168067 C8.83697479,12.887395 8.77983193,12.9680672 8.73613445,13.0554622 L8.73613445,13.1092437 L8.71260504,13.1092437 C8.60504202,13.3411765 8.54453782,13.6369748 8.54453782,14.0067227 L8.54453782,19.1193277 C8.54453782,19.6705882 8.66554622,20.0739496 8.90420168,20.3226891 C9.14957983,20.5781513 9.56302521,20.7058824 10.1344538,20.7058824 L21.0117647,20.6991597 C21.5831933,20.6991597 21.9966387,20.5714286 22.2453782,20.3159664 C22.4840336,20.0672269 22.605042,19.6605042 22.605042,19.1092437 L22.605042,14.0033613 C22.605042,13.4554622 22.4840336,13.0554622 22.2453782,12.8134454 C22,12.5613445 21.5865546,12.4369748 21.0117647,12.4369748 C21.0184874,12.4336134 10.1411765,12.4403361 10.1411765,12.4403361 L10.1411765,12.4403361 Z M8.0302521,20.7798319 L8.0302521,20.8571429 L1.06890756,20.8571429 C0.484033613,20.8571429 0.0100840336,20.3831933 0.0100840336,19.8016807 L0.0100840336,18.1478992 C0.0100840336,16.4369748 0.551260504,14.9680672 1.5697479,13.902521 C2.68235294,12.7428571 4.31596639,12.1310924 6.29579832,12.1310924 L8.20168067,12.1310924 C8.63865546,11.6840336 9.2907563,11.4588235 10.1378151,11.4588235 L21.0151261,11.4521008 C21.8621849,11.4521008 22.5142857,11.6773109 22.9512605,12.1243697 C23.3747899,12.5546218 23.5865546,13.189916 23.5865546,14 L23.5865546,19.112605 C23.5865546,19.9260504 23.3714286,20.5613445 22.9512605,20.9983193 C22.5142857,21.4521008 21.8621849,21.6840336 21.0117647,21.6840336 L10.1344538,21.6907563 C9.28739496,21.6907563 8.63529412,21.4588235 8.19495798,21.005042 C8.13781513,20.9378151 8.08739496,20.8571429 8.0302521,20.7798319 Z" id="Formacion_1Light"></path>
        </g>
    </g>
</svg>

<svg width="24" height="24" viewBox="0 0 24 24" xmlns="http://www.w3.org/2000/svg"><path d="M23.143 22.642a.49.49 0 01.467.514.487.487 0 01-.467.468H8.053a.49.49 0 01-.49-.491.49.49 0 01.49-.491h15.09zM6.03 2.081c-.78.756-1.176 1.895-1.176 3.391S5.25 8.108 6.03 8.857c.753.726 1.866 1.093 3.304 1.093 1.442 0 2.555-.367 3.311-1.093.787-.75 1.184-1.892 1.184-3.385 0-1.492-.397-2.638-1.184-3.391-.756-.73-1.869-1.1-3.31-1.1-1.44 0-2.552.37-3.305 1.1zm3.304 8.853c-1.7 0-3.042-.46-3.983-1.364-.981-.945-1.479-2.323-1.479-4.094 0-1.772.498-3.15 1.476-4.098C6.289.464 7.634 0 9.334 0c1.701 0 3.046.464 3.99 1.371.985.948 1.483 2.33 1.483 4.101 0 1.772-.498 3.15-1.486 4.094-.941.908-2.282 1.368-3.987 1.368zM.992 19.802c0 .04.033.074.074.074h6.581c-.054-.25-.08-.501-.08-.757v-5.112c0-.333.043-.629.117-.898H6.303c-1.708 0-3.096.508-4.017 1.47-.844.88-1.291 2.113-1.291 3.566l-.003 1.657zm9.15-7.362c-.576 0-.99.128-1.238.377a.988.988 0 00-.168.238v.054h-.023c-.108.232-.168.528-.168.898v5.112c0 .552.12.955.36 1.204.245.255.658.383 1.23.383l10.877-.007c.571 0 .985-.128 1.233-.383.239-.249.36-.655.36-1.207v-5.106c0-.548-.121-.948-.36-1.19-.245-.252-.658-.376-1.233-.376.006-.003-10.87.003-10.87.003zM8.03 20.78v.077H1.07A1.058 1.058 0 01.01 19.802v-1.654c0-1.711.541-3.18 1.56-4.245 1.112-1.16 2.746-1.772 4.726-1.772h1.906c.437-.447 1.089-.672 1.936-.672l10.877-.007c.847 0 1.5.225 1.936.672.424.43.636 1.066.636 1.876v5.113c0 .813-.216 1.448-.636 1.885-.437.454-1.089.686-1.94.686l-10.877.007c-.847 0-1.499-.232-1.939-.686-.057-.067-.108-.148-.165-.225z" fill="#5CB615" fill-rule="nonzero"/></svg>
